X: 35872
T: Sandhills, The
R: reel
M: 4/4
K: Dmajor
fe|d2 cd ADFA|G2 E=C G,CEG|Ad (3dcd cdeg|fgec Agfe|
d2 cd ADFA|G2 E=C G,CEG|Ad (3dcd cdeg|fdec d2:|
fg|a2 fd adfd|ad ~d2 BGBd|g2 e=c gcec|g=c (3cBc efge|
a2 fd adfd|ad ~d2 BGBd|gfed cbag|(3fga ec d2:|

